X: 1
T: Boules Et Guirlandes
M: 3/2
L: 1/8
R: three-two
K: Edor
M: 6/4
E>F G>B A2 G>A B>G E>D | E>F G>B (3ABA G>A B>G E2 |
E>F G>B (3ABA G>A B>G E>D | E>F G>B (3ABA G>A B>G E>E ||
c2 A>c B>A G>F E>F G>B | c2 A>c B>A G>F G>B A>B | 
c2 A>c B>A G>F E>F G>B | c2 A>c B>A G>F G>B A>D |]
